!!!!SEGMENT: pl-kozmzk--mzk-m-346--003_walczynski-franciszek--cantantibus-organis-adagio.krn
!!!cenid: 18xx:2798
!!!COM: Walczyński, Franciszek
!!!COM-rismid: pe30021989
!!!CDT: ~1852-1937
!!!CNT: Polish
!!!OTL: Cantantibus organis – Adagio
!!!PDT: 1898
!!!AGN: Secular
!!!SMS-siglum: PL-KOZmzk
!!!SMS-shelfmark: mzk/m/346
!!!SMS-shelfwork: 003 G
!!!SMS-variant:
!!!SMS-altvar:
!!!NIFC-rismid: 1001109062
!!!URL-scan: https://repozytorium.nifc.pl/islandora/object/pl-kozmzk%3A7453/datastream/PDF/view
!!!ONB-nifc:
**kern	**kern	**dynam
*part1	*part1	*part1
*staff2	*staff1	*
*I"Organo	*I"Organo	*
*clefF4	*clefG2	*
*k[]	*k[]	*
*a:	*a:	*
*M6/8	*M6/8	*
=1	=1	=1
*^	*^	*
!!LO:TX:B:t=Adagio.
4.E/	(2.AA\	(8cc/L	(2.c\	pp
.	.	8a/	.	.
.	.	8e/J	.	.
4.A/	.	4f/	.	.
.	.	8e/	.	.
=2	=2	=2	=2	=2
[4.E/	4.GG#X\	8.e/L	4.B\	.
.	.	16f/L	.	.
.	.	16e/	.	.
.	.	16d/JJ	.	.
4.E/]	4.AA\)	4.c/)	4.A\)	.
=3	=3	=3	=3	=3
(4.F/	(8FF\L	(8a/L	[2.c\	.
.	8AA\	8f/	.	.
.	8AA-X\J	8d/J	.	.
8G/L	[4.GG\	8e/L	.	.
8A/	.	8f/	.	.
8G/J	.	8e/J	.	.
=4	=4	=4	=4	=4
4.F/	4.GG\]	4.d/	8c\L]	.
.	.	.	8A\	.
.	.	.	8B\J	.
4E/)	4C\)	4c/)	4G\	.
!	!	!	!	!LO:DY:a:t=pf
8r	8r	8d/	8r	fp
=5	=5	=5	=5	=5
4r	2.r	(8e/L	2.r	.
.	.	(8qg/	.	.
.	.	8f/)	.	.
(8E/	.	8e/J	.	.
8G#X/L	.	8b/L	.	.
8A/	.	8cc/	.	.
8c/J	.	8b/J	.	.
=6	=6	=6	=6	=6
8e/L	2.r	4.g#X/	2.r	.
8f/	.	.	.	.
16e/L	.	.	.	.
16d/JJ	.	.	.	.
8c/L	.	8a/L	.	.
8B/	.	8b/	.	.
8A/J)	.	8cc/J)	.	.
=7	=7	=7	=7	=7
!	!LO:TX:i:b=2:t=Ped.	!	!	!LO:DY:b=2
2.e/	(8E\L	(4.b/	4.g#X\	f
.	8F\	.	.	.
.	16E\L	.	.	.
.	16D\JJ	.	.	.
.	8C\L	8ee/L	8a\L	.
.	8BB\	8dd/	8g#\	.
.	8AA\J)	8cc/J)	8a\J	.
=8	=8	=8	=8	=8
!!LO:LB:g=original
(4f/	(4D\	(4dd/	[4.a\	.
8g/	8C#X\	8ee/	.	.
4f/)	4D\)	8.ff/L	4a\]	.
.	.	16a/L	.	.
8r	8r	16b/	8r	.
.	.	16cc/JJ)	.	.
=9	=9	=9	=9	=9
!	!	!	!	!LO:DY:a
4rAA	4rA	4d#X/	4r	pp
8rAA	8rA	8d#/	8r	.
!	!LO:TX:i:b=2:t=senza Ped.	!	!	!
!	!	!	!	!LO:DY:b=2
(8A/L	[4.E\	[4.e^/	(8c\L	pp
!	!	!	!	!LO:HP:a
8G#X/	.	.	8B\	<
8F#X/J	.	.	8A\J	.
=10	=10	=10	=10	=10
8G#X/L	4.E\]	2.e/]	8B\L	.
8A/	.	.	8c\	[
!	!	!	!	!LO:HP:a
8B/J	.	.	8d\J	>
4.A/)	(8.AA\L	.	4.c\)	.
.	16AA\L	.	.	.
.	16BB\	.	.	.
.	16C\JJ)	.	.	.
*	*	*v	*v	*
=11	=11	=11	=11
4r	4DD#X^\	4r	]
8r	8DD#\	8r	.
4r	4EE\	4r	.
!	!LO:TX:i:b=2:t=Ped.	!	!
(8G#X/	(8E\	(8d/ [8e 8b	pp
=12	=12	=12	=12
*	*	*^	*
(4.A/)	4.AA\)	4.c^/) 4.e] 4.a	4.ryy	.
!	!	!	!	!LO:DY:a
4.Gn/	[4.AA\	([4.a/	8c#X\L	fp
.	.	.	8d\	.
.	.	.	[8e\J	.
=13	=13	=13	=13	=13
!	!	!LO:TX:a:t=rit.	!	!
4.F#X/	2.AA\_	4.a/]	4e\]	>
.	.	.	8d\	.
4Fn/	.	4dd/	4.d\	.
8G#X/	.	8f/	.	.
=14	=14	=14	=14	=14
2.A/)	2.AA;\]	2.e;/)	2.c#X\	] ppp
*v	*v	*	*	*
*	*v	*v	*
==	==	==
*-	*-	*-
!!!system-decoration: {(s1,s2)}
!!!ENC: Kamil Watkowski
!!!END: 2021-08-09
